!!!COM: Mozart, Wolfgang Amadeus
!!!OTL: String Quartet No. 21 in D Major ("The Violet")
!!!OMD: Menuetto: Allegretto
!!!OMV: 3
!!!SCT1: K<sup>1</sup> 575
!!!SCA: Chronologisch-thematisches Verzeichnis sämtlicher Tonwerke Wolfgang Amade Mozarts (L. von Köchel; 1862, 2/1905, 3/1937, 1947)
!!!SCT2: K<sup>6</sup> 575
!!!YOR: Breitkopf & Härtel Edition
!!!ENC: Frances Bennion
!!!CDT: 1756/1/27/-1791/12/5/
!!!OCY: Österreich
!!!YEC: Copyright (c) 1994, 2000 Center for Computer Assisted Research in the Humanities
!!!YEM: Rights to all derivative editions reserved.
!!!YEM: Refer to licensing agreement for further details.
!!!YEN: United States of America
**kern	**kern	**kern	**kern
*k[f#c#]	*k[f#c#]	*k[f#c#]	*k[f#c#]
*D:	*D:	*D:	*D:
*clefC	*clefF	*clefG	*clefG
*M3/4	*M3/4	*M3/4	*M3/4
2r	2r	2r	2r
4A	[4a	16dd	16ff#
.	.	16cc#	16ee
.	.	16b	16dd
.	.	16cc#	16ee
=1	=1	=1	=1
4d	4a]	4dd	4ff#
4d	4a	4dd	4ff#
4d	4a	4dd	4ff#
=2	=2	=2	=2
4d	4a	4dd	4ff#
4d	4a	4dd	4ff#
4d	4a	4dd	4ff#
=3	=3	=3	=3
2B	2g	2.dd	2gg
4A	4f#	.	4aa
=4	=4	=4	=4
2.G	2.g	2.dd	2.bb
=5	=5	=5	=5
[2.AA	[2.G [2.E	[2.c#	8aa
.	.	.	8gg
.	.	.	8ff#
.	.	.	8ee
.	.	.	8dd
.	.	.	8cc#
=6	=6	=6	=6
2.AA]	2.G] 2.E]	2.c#]	8b
.	.	.	8a
.	.	.	8g
.	.	.	8f#
.	.	.	8e
.	.	.	8d
=7	=7	=7	=7
4GG	4E	2A	4c#
4FF#	4F#	.	4d
4DD	4A	4d	4f#
=8	=8	=8	=8
4AA	4A	4c#	4e
4r	4r	4r	4r
4A	[4a	16dd	16ff#
.	.	16cc#	16ee
.	.	16b	16dd
.	.	16cc#	16ee
=9	=9	=9	=9
4d	4a]	4dd	4ff#
4d	4a	4dd	4ff#
4d	4a	4dd	4ff#
=10	=10	=10	=10
4d	4a	4dd	4ff#
4d	4a	4dd	4ff#
4d	4a	4dd	4ff#
=11	=11	=11	=11
2B	2.e	2dd	2gg#
4A	.	4cc#	4aa
=12	=12	=12	=12
2.G#	[2.e	2.b	2.bb
=13	=13	=13	=13
4A	4e]	8a	8ccc#
.	.	8cc#	8aa
4B	2e	8dd	8gg#
.	.	8b	8bb
4c#	.	4ee	8aa
.	.	.	8ee
=14	=14	=14	=14
4D	4a	8d	8ff#
.	.	8f#	8dd
4E	2A	8g	8cc#
.	.	8e	8ee
4F#	.	4a	8dd
.	.	.	8b
=15	=15	=15	=15
4E	4A	4c#	8dd#
.	.	.	8ee
4r	4r	4r	8cc#
.	.	.	8a
4EE	4B	4d	8e
.	.	.	8g#
=16	=16	=16	=16
4AA	4A	4c#	4a
4r	4r	2r	2r
16B	16d	.	.
16A	16c#	.	.
16G#	16B	.	.
16A	16c#	.	.
=17	=17	=17	=17
4B	4d	4r	4r
4B	4d	4dd	4ddd
4B	4d	4f#	4ff#
=18	=18	=18	=18
4B	4d	4a	4aa
4r	4r	4g#	4gg#
16B	16d	4r	4r
16A	16c#	.	.
16G#	16B	.	.
16A	16c#	.	.
=19	=19	=19	=19
4B	4d	4r	4r
4B	4d	4dd	4ddd
4B	4d	4f#	4ff#
=20	=20	=20	=20
4B	4d	4a	4aa
4r	4r	4g#	4gg#
16B	16d	4r	4r
16A	16c#	.	.
16G#	16B	.	.
16A	16c#	.	.
=21	=21	=21	=21
4B	4d	4r	4r
4r	4r	4dd	4ddd
16c#	16e	4g#	4gg#
16B	16d	.	.
16A	16c#	.	.
16B	16d	.	.
=22	=22	=22	=22
4c#	4e	4r	4r
4r	4r	4ee	4eee
16d	16f#	4a#	4aa#
16c#	16e	.	.
16B	16d	.	.
16c#	16e	.	.
=23	=23	=23	=23
4d	4f#	4r	4r
2r	2r	8ff#	8fff#
.	.	8ff#	8fff#
.	.	8ee	8eee
.	.	8ee	8eee
=24	=24	=24	=24
2.r	2.r	8dd	8ddd
.	.	8dd	8ddd
.	.	8cc#	8ccc#
.	.	8cc#	8ccc#
.	.	8b	8bb
.	.	8b	8bb
=25	=25	=25	=25
2r	2r	[2.a	[2.aa
4D#	4c	.	.
=26	=26	=26	=26
2.E	4c#	4a]	4aa]
.	4e	4cc#	4ccc#
.	4d	4b	4bb
=27	=27	=27	=27
4AA	4c#	4a	4aa
4r	4r	4r	8.ccc#
.	.	.	16ddd
4e	4dd	4gg#	8.bb
.	.	.	16ccc#
=28	=28	=28	=28
4a	4cc#	4aa	4aa
4r	4r	4r	8.cc#
.	.	.	16dd
4E	4d	4g#	8.b
.	.	.	16cc#
=29	=29	=29	=29
4A	4c#	4a	4a
4r	4r	4r	8.c#
.	.	.	16d
4EE	4D	4G#	8.B
.	.	.	16c#
=30	=30	=30	=30
4AA	4C#	4A	4A
4r	4r	4r	4r
16B	16b	16bb	16bb
16A	16a	16aa	16aa
16G#	16g#	16gg#	16gg#
16A	16a	16aa	16aa
=31	=31	=31	=31
4c	4cc	4ccc	4ccc
4c	4cc	4ccc	4ccc
4c	4cc	4ccc	4ccc
=32	=32	=32	=32
4c	4cc	4ccc	4ccc
4c	4cc	4ccc	4ccc
4c	4cc	4ccc	4ccc
=33	=33	=33	=33
2D#	2d#	2dd#	2dd#
4E	4e	4ee	4ee
=34	=34	=34	=34
2A#	2a#	2aa#	2aa#
4B	4b	4bb	4bb
=35	=35	=35	=35
4C#	4c#	4cc#	4cc#
4D	4d	4dd	4dd
4E	4e	4ee	4ee
=36	=36	=36	=36
4F	4f	4ff	4ff
4BB-	4B-	4B-	4B-
4AA	4A	4A	4A
=37	=37	=37	=37
4GG#	4G#	4G#	4G#
2r	4f	2r	2r
.	4d	.	.
=38	=38	=38	=38
2.r	4b	4r	2.r
.	2r	4g#	.
.	.	4ff	.
=39	=39	=39	=39
2.r	2.r	4dd	4r
.	.	2r	4ddd
.	.	.	4bb
=40	=40	=40	=40
2r	2r	2r	4fff
.	.	.	4ddd
4GG#	4G#	4G#	4r
=41	=41	=41	=41
[2.AA	4A	4A	4r
.	2r	2r	4bb-
.	.	.	4ee
=42	=42	=42	=42
2.AA_	2.r	4r	4gg
.	.	4cc#	2r
.	.	4ee	.
=43	=43	=43	=43
2.AA_	4r	4g	2.r
.	4b-	2r	.
.	4e	.	.
=44	=44	=44	=44
2AA]	4g	2r	2r
.	4A	.	.
4c#	4g	[4a	16ff#
.	.	.	16ee
.	.	.	16dd
.	.	.	16ee
=45	=45	=45	=45
4d	4f#	4a]	4ff#
4d	4f#	4a	4ff#
4d	4f#	4a	4ff#
=46	=46	=46	=46
4d	4f#	4a	4ff#
4d	4f#	4a	4ff#
4d	4f#	4a	4ff#
=47	=47	=47	=47
2B	2d	2dd	2gg
4A	4f#	4cc	4aa
=48	=48	=48	=48
2.G	2.g	2.b	2.bb
=49	=49	=49	=49
[2.AA	[2.G [2.E	[2.c#	8aa
.	.	.	8gg
.	.	.	8ff#
.	.	.	8ee
.	.	.	8dd
.	.	.	8cc#
=50	=50	=50	=50
2.AA]	2.G] 2.E]	2.c#]	8b
.	.	.	8a
.	.	.	8g
.	.	.	8f#
.	.	.	8e
.	.	.	8d
=51	=51	=51	=51
4GG	4E	2A	4c#
4FF#	4F#	.	4d
4DD	4A	4d	4f#
=52	=52	=52	=52
4AA	4A	4c#	4e
4r	4r	4r	4r
4A	[4a	16dd	16ff#
.	.	16cc#	16ee
.	.	16b	16dd
.	.	16cc#	16ee
=53	=53	=53	=53
4d	4a]	4dd	4ff#
4d	4a	4dd	4ff#
4d	4a	4dd	4ff#
=54	=54	=54	=54
4d	4a	4dd	4ff#
4d	4a	4dd	4ff#
4d	4a	4dd	4ff#
=55	=55	=55	=55
2c	2a	2.dd	2ff#
4B	4g	.	4gg
=56	=56	=56	=56
2.A	2.f#	2.dd#	[2.ccc
=57	=57	=57	=57
[2.G	[2.g	2.ee	8ccc]
.	.	.	8bb
.	.	.	8aa#
.	.	.	8bb
.	.	.	8aa
.	.	.	8gg
=58	=58	=58	=58
4G]	4g]	4b	8ff#
.	.	.	8ee
2r	2r	2r	8dd#
.	.	.	8ee
.	.	.	8gg
.	.	.	8ee
=59	=59	=59	=59
4A	4d	4f#	8gg#
.	.	.	8aa
4r	4r	4r	8ff#
.	.	.	8dd
4AA	4e	4g	8a
.	.	.	8cc#
=60	=60	=60	=60
4D	4d	4f#	4dd
4r	4r	2r	2r
16e	16g	.	.
16d	16f#	.	.
16c#	16e	.	.
16d	16f#	.	.
=61	=61	=61	=61
4e	4g	4r	4r
4e	4g	4g	4gg
4e	4g	4B	4b
=62	=62	=62	=62
4e	4g	4d	4dd
4r	4r	4c#	4cc#
16e	16g	4r	4r
16d	16f#	.	.
16c#	16e	.	.
16d	16f#	.	.
=63	=63	=63	=63
4e	4g	4r	4r
4e	4g	4g	4gg
4e	4g	4B	4b
=64	=64	=64	=64
4e	4g	4d	4dd
4r	4r	4c#	4cc#
16e	16g	4r	4r
16d	16f#	.	.
16c#	16e	.	.
16d	16f#	.	.
=65	=65	=65	=65
4e	4g	4r	4r
4r	4r	4g	4gg
16f#	16a	4c#	4cc#
16e	16g	.	.
16d	16f#	.	.
16e	16g	.	.
=66	=66	=66	=66
4f#	4a	4r	4r
4r	4r	4a	4aa
16g	16b	4d#	4dd#
16f#	16a	.	.
16e	16g	.	.
16f#	16a	.	.
=67	=67	=67	=67
4g	4b	4r	4r
2r	2r	8b	8bb
.	.	8b	8bb
.	.	8a	8aa
.	.	8a	8aa
=68	=68	=68	=68
2.r	2.r	8g	8gg
.	.	8g	8gg
.	.	8f#	8ff#
.	.	8f#	8ff#
.	.	8e	8ee
.	.	8e	8ee
=69	=69	=69	=69
2r	2r	[2.d	[2.dd
4G#	4f	.	.
=70	=70	=70	=70
2.A	4f#	4d]	4dd]
.	4a	4f#	4ff#
.	4g	4e	4ee
=71	=71	=71	=71
4D	4f#	4d	4dd
4r	4r	4r	8.ff#
.	.	.	16gg
4A	4g	4cc#	8.ee
.	.	.	16ff#
=72	=72	=72	=72
4d	4f#	4dd	4dd
4r	4r	4r	8.f#
.	.	.	16g
4AA	4G	4c#	8.e
.	.	.	16f#
=73	=73	=73	=73
4D	4F#	4d	4d
4r	8.a	8.ff#	4aa
.	16b	16gg	.
4AA	8.g	8.ee	4ccc# 4a
.	16a	16ff#	.
=74	=74	=74	=74
4DD	4f#	4dd	4ddd 4a 4d
4r	4r	4r	4r
4r	4r	8c#	8cc#
.	.	8d	8dd
=75	=75	=75	=75
2.r	2.r	8e	8ee
.	.	8d	8dd
.	.	8d	8dd
.	.	8c	8cc
.	.	8c	8cc
.	.	8B	8b
=76	=76	=76	=76
2.r	2.r	8d	8dd
.	.	8c	8cc
.	.	8c	8cc
.	.	8B	8b
.	.	8B	8b
.	.	8A	8a
=77	=77	=77	=77
2gg	4G	4G	8g
.	.	.	8d
.	2r	2r	8B
.	.	.	8d
16aa	.	.	8G
16gg	.	.	.
16ff#	.	.	8d
16gg	.	.	.
=78	=78	=78	=78
4aa	4F#	2.r	8c
.	.	.	8d
4ff#	2r	.	8A
.	.	.	8d
4dd	.	.	8c
.	.	.	8d
=79	=79	=79	=79
2bb	4G	2.r	8B
.	.	.	8d
.	4r	.	8g
.	.	.	8d
4ccc	4C#	.	8e
.	.	.	8a
=80	=80	=80	=80
4aa	4D	2r	4f#
2r	4d	.	4r
.	4r	8c#	8cc#
.	.	8d	8dd
=81	=81	=81	=81
2.r	2.r	8e	8ee
.	.	8d	8dd
.	.	8d	8dd
.	.	8c	8cc
.	.	8c	8cc
.	.	8B	8b
=82	=82	=82	=82
2.r	2.r	8d	8dd
.	.	8c	8cc
.	.	8c	8cc
.	.	8B	8b
.	.	8B	8b
.	.	8A	8a
=83	=83	=83	=83
2gg	4E	4G	8g
.	.	.	8e
.	2r	2r	8B
.	.	.	8e
16aa	.	.	8G
16gg	.	.	.
16ff#	.	.	8e
16gg	.	.	.
=84	=84	=84	=84
4aa	4C#	2.r	8c
.	.	.	8e
4ccc	2r	.	8A
.	.	.	8e
4aa	.	.	8c
.	.	.	8e
=85	=85	=85	=85
2ff#	2.D	2.r	8c
.	.	.	8d
.	.	.	8A
.	.	.	8d
8aa	.	.	8c
8gg	.	.	8d
=86	=86	=86	=86
4gg	4G	2.r	4B
4r	4r	.	4r
4b	4r	.	4r
=87	=87	=87	=87
2.bb	4D#	2.r	8B
.	.	.	8a
.	2r	.	8f#
.	.	.	8a
.	.	.	8B
.	.	.	8a
=88	=88	=88	=88
2gg	4E	2.r	8B
.	.	.	8g
.	2r	.	8e
.	.	.	8g
4ee	.	.	8B
.	.	.	8g
=89	=89	=89	=89
2dd#	2.A	2.r	8B
.	.	.	8f#
.	.	.	8d#
.	.	.	8f#
4ff#	.	.	8B
.	.	.	8f#
=90	=90	=90	=90
4ee	4G	2.r	8B
.	.	.	8g
2r	2r	.	8e
.	.	.	8g
.	.	.	8B
.	.	.	8g
=91	=91	=91	=91
2.aa	4C#	2.r	8A
.	.	.	8g
.	2r	.	8e
.	.	.	8g
.	.	.	8A
.	.	.	8g
=92	=92	=92	=92
8bb	4D	2.r	8A
8aa	.	.	8f#
8gg	2r	.	8d
8ff#	.	.	8f#
8ee	.	.	8A
8dd	.	.	8f#
=93	=93	=93	=93
2cc#	2.G	2.r	8A
.	.	.	8e
.	.	.	8c#
.	.	.	8e
8ee	.	.	8A
8dd	.	.	8e
=94	=94	=94	=94
4dd	4F#	2.r	8A
.	.	.	8f#
4r	2r	.	8d
.	.	.	8f#
4a	.	.	8A
.	.	.	8f#
=95	=95	=95	=95
2.dd	2.B	8B	4r
.	.	8f#	.
.	.	8d	4b
.	.	8f#	.
.	.	8B	4dd
.	.	8f#	.
=96	=96	=96	=96
2.dd#	2.A	8c	4r
.	.	8f#	.
.	.	8d#	4ccc
.	.	8f#	.
.	.	8c	4dd#
.	.	8f#	.
=97	=97	=97	=97
2.ee	2.G	8B	4r
.	.	8g	.
.	.	8e	4gg
.	.	8g	.
.	.	8B	4bb
.	.	8g	.
=98	=98	=98	=98
2.ff	2.G#	8d	4r
.	.	8b	.
.	.	8f	4ddd
.	.	8b	.
.	.	8d	4ff
.	.	8b	.
=99	=99	=99	=99
2ff#	[2.A	8d	4r
.	.	8a	.
.	.	8f#	4ddd
.	.	8a	.
16gg	.	8d	4ff#
16ff#	.	.	.
16ee	.	8a	.
16ff#	.	.	.
=100	=100	=100	=100
2gg	2.A]	8c#	4r
.	.	8a	.
.	.	8e	4aa
.	.	8a	.
4ee	.	8g	4cc#
.	.	8a	.
=101	=101	=101	=101
[2.dd	4d	8f#	4dd
.	.	8d	.
.	2r	8f#	4a
.	.	8d	.
.	.	8g	4b
.	.	8d	.
=102	=102	=102	=102
2dd]	2.r	8a	4cc
.	.	8d	.
.	.	8g	4b
.	.	8d	.
8cc#	.	8f#	4a
8dd	.	8d	.
=103	=103	=103	=103
8ee	4G	4g	4b
8dd	.	.	.
8dd	2r	2r	2r
8cc	.	.	.
8cc	.	.	.
8b	.	.	.
=104	=104	=104	=104
8dd	4D	4f#	4a
8cc	.	.	.
8cc	2r	2r	2r
8b	.	.	.
8b	.	.	.
8a	.	.	.
=105	=105	=105	=105
4G	8G	2g	4r
.	8d	.	.
2r	8B	.	4d
.	8d	.	.
.	8G	16a	4B
.	.	16g	.
.	8d	16f#	.
.	.	16g	.
=106	=106	=106	=106
4D	8F#	4a	4r
.	8d	.	.
2r	8c	4f#	4A
.	8d	.	.
.	8F#	4d	4c
.	8d	.	.
=107	=107	=107	=107
4GG	8G	2b	4r
.	8d	.	.
2r	8B	.	4g
.	8d	.	.
.	8G	8dd	8b
.	8d	8cc	8a
=108	=108	=108	=108
4DD	4D	4a	4f#
2r	4r	2r	2r
.	8cc#	.	.
.	8dd	.	.
=109	=109	=109	=109
2.r	8ee	2.r	2.r
.	8dd	.	.
.	8dd	.	.
.	8cc	.	.
.	8cc	.	.
.	8b	.	.
=110	=110	=110	=110
2.r	8dd	2.r	2.r
.	8cc	.	.
.	8cc	.	.
.	8b	.	.
.	8b	.	.
.	8a	.	.
=111	=111	=111	=111
8E	2g	4r	2gg
8B	.	.	.
8G	.	4e 4B	.
8B	.	.	.
8E	16a	4e 4B	16aa
.	16g	.	16gg
8B	16f#	.	16ff#
.	16g	.	16gg
=112	=112	=112	=112
8C	4a	4r	4aa
8A	.	.	.
8E	4cc	4e 4c	4ccc
8A	.	.	.
8C	4ee	4e 4c	4eee
8A	.	.	.
=113	=113	=113	=113
8DD	2f#	4r	2ff#
8D	.	.	.
8C#	.	4d 4A	.
8D	.	.	.
8DD	8a	4d 4c	8aa
8D	8g	.	8gg
=114	=114	=114	=114
4GG	4g	4d 4B	4gg
4r	4r	4r	4r
4r	4r	4r	4r
==	==	==	==
*-	*-	*-	*-
!!!RWG1: This file contains only pitch and duration data.
!!!RWG2: Transposing instruments are not transposed.
!!!RWG3: Spines may have incompatible meters.
!!!RWG4: Durations of rests and tied notes may be interpreted.
!!!RWG: Key is interpreted using the Humdrum key tool.
!!!AFT: stage1
!!!END: 1997/04/15
!!!KEY: 3559129737
!!!EMD: Converted from MuseData to Humdrum Dec 16, 2000, by Andreas Kornstaedt using muse2kern.
!!!EMD: Manual editing by Craig Sapp, Nov 2001
